dist/img/home.svg

<svg width="100" height="100" viewBox="0 0 100 100" fill="none" xmlns="http://www.w3.org/2000/svg">
<path d="M89.0625 39.9843L91.1171 41.3796C91.3781 41.5562 91.6828 41.6499 91.9953 41.6499C92.0921 41.6499 92.1921 41.6405 92.289 41.6218C92.6953 41.5437 93.0546 41.3077 93.2875 40.964L96.7968 35.7905C97.2828 35.0765 97.0953 34.1046 96.3812 33.6202L50.8781 2.74365C50.3468 2.38428 49.6546 2.38428 49.1234 2.74365L3.61715 33.6218C2.90308 34.1062 2.71714 35.078 3.20152 35.7921L6.71089 40.9655C6.94214 41.3093 7.30308 41.5452 7.70933 41.6233C8.11871 41.7015 8.53902 41.6124 8.88121 41.3812L10.9375 39.9843V55.6171C10.0218 56.0171 9.27339 56.7561 8.88121 57.728C6.25464 64.2218 3.12496 72.7561 3.12496 76.5624C3.12496 82.1718 6.39058 86.528 10.9375 87.3483V93.7499H3.12496V96.8749H96.875V93.7499H89.0625V39.9843ZM8.42027 37.9171L6.66558 35.328L50 5.92334L93.3343 35.328L91.5796 37.9155L50.8781 10.2968C50.6125 10.1171 50.3062 10.0265 50 10.0265C49.6937 10.0265 49.3875 10.1171 49.1218 10.2968L8.42027 37.9171ZM6.24996 76.5624C6.24996 74.0233 8.26402 67.5858 11.7765 58.8999C11.9562 58.4577 12.3421 58.4108 12.5 58.4108C12.6578 58.4108 13.0437 58.4577 13.2234 58.8999C16.7359 67.5858 18.75 74.0233 18.75 76.5624C18.75 81.089 16.1203 84.3749 12.5 84.3749C8.87965 84.3749 6.24996 81.089 6.24996 76.5624ZM14.0625 87.3483C18.6093 86.528 21.875 82.1718 21.875 76.5624C21.875 72.7561 18.7453 64.2218 16.1187 57.728C15.7265 56.7561 14.9781 56.0171 14.0625 55.6171V37.864L50 13.478L85.9375 37.864V68.278L85.675 67.8843C85.0953 67.014 83.6546 67.014 83.075 67.8843L79.95 72.5718C79.7796 72.8265 79.6875 73.1296 79.6875 73.4374V76.5624H76.5625V73.4374C76.5625 73.1296 76.4703 72.8265 76.3 72.5702L73.175 67.8827C72.5953 67.0124 71.1546 67.0124 70.575 67.8827L67.45 72.5702C67.2796 72.8265 67.1875 73.1296 67.1875 73.4374V76.5624H64.0625V73.4374C64.0625 73.1296 63.9703 72.8265 63.8 72.5702L60.675 67.8827C60.0953 67.0124 58.6546 67.0124 58.075 67.8827L54.95 72.5702C54.7796 72.8265 54.6875 73.1296 54.6875 73.4374V93.7499H45.3125V64.0624C45.3125 63.1983 44.614 62.4999 43.75 62.4999H26.5625C25.6984 62.4999 25 63.1983 25 64.0624V93.7499H14.0625V87.3483ZM60.9375 93.7499H57.8125V73.9108L59.375 71.5671L60.9375 73.9108V93.7499ZM64.0625 79.6874H67.1875V82.8124H64.0625V79.6874ZM64.0625 85.9374H67.1875V93.7499H64.0625V85.9374ZM73.4375 93.7499H70.3125V73.9108L71.875 71.5671L73.4375 73.9108V93.7499ZM76.5625 79.6874H79.6875V82.8124H76.5625V79.6874ZM76.5625 85.9374H79.6875V93.7499H76.5625V85.9374ZM42.1875 93.7499H28.125V65.6249H42.1875V93.7499ZM82.8125 93.7499V73.9108L84.375 71.5671L85.9375 73.9108V93.7499H82.8125Z" fill="black"/>
<path d="M45.3125 51.5625H54.6875C58.1344 51.5625 60.9375 48.7594 60.9375 45.3125V35.9375C60.9375 32.4906 58.1344 29.6875 54.6875 29.6875H45.3125C41.8656 29.6875 39.0625 32.4906 39.0625 35.9375V45.3125C39.0625 48.7594 41.8656 51.5625 45.3125 51.5625ZM42.1875 45.3125V42.1875H48.4375V48.4375H45.3125C43.5891 48.4375 42.1875 47.0359 42.1875 45.3125ZM54.6875 48.4375H51.5625V42.1875H57.8125V45.3125C57.8125 47.0359 56.4109 48.4375 54.6875 48.4375ZM57.8125 35.9375V39.0625H51.5625V32.8125H54.6875C56.4109 32.8125 57.8125 34.2141 57.8125 35.9375ZM45.3125 32.8125H48.4375V39.0625H42.1875V35.9375C42.1875 34.2141 43.5891 32.8125 45.3125 32.8125Z" fill="black"/>
<path d="M35.9375 78.125H39.0625V81.25H35.9375V78.125Z" fill="black"/>
</svg>

<svg width="100" height="100" fill="none" xmlns="http://www.w3.org/2000/svg"><path d="m89.063 39.984 2.054 1.396a1.565 1.565 0 0 0 1.172.242c.406-.078.766-.314.998-.658l3.51-5.173a1.561 1.561 0 0 0-.416-2.17L50.878 2.743a1.563 1.563 0 0 0-1.755 0L3.617 33.622a1.563 1.563 0 0 0-.415 2.17l3.509 5.173a1.557 1.557 0 0 0 2.17.416l2.056-1.397v15.633a3.884 3.884 0 0 0-2.056 2.111c-2.626 6.494-5.756 15.028-5.756 18.834 0 5.61 3.266 9.966 7.813 10.786v6.402H3.125v3.125h93.75V93.75h-7.813V39.984ZM8.42 37.917l-1.754-2.589L50 5.923l43.334 29.405-1.754 2.587-40.702-27.618a1.566 1.566 0 0 0-1.756 0L8.42 37.917ZM6.25 76.562c0-2.539 2.014-8.976 5.527-17.662a.754.754 0 0 1 .723-.49c.158 0 .544.048.723.49 3.513 8.686 5.527 15.123 5.527 17.662 0 4.527-2.63 7.813-6.25 7.813s-6.25-3.286-6.25-7.813Zm7.813 10.786c4.546-.82 7.812-5.176 7.812-10.786 0-3.806-3.13-12.34-5.756-18.834a3.885 3.885 0 0 0-2.056-2.11V37.863L50 13.478l35.938 24.386v30.414l-.263-.394c-.58-.87-2.02-.87-2.6 0l-3.125 4.688c-.17.254-.263.558-.263.865v3.125h-3.124v-3.125c0-.307-.093-.61-.263-.867l-3.125-4.687c-.58-.87-2.02-.87-2.6 0L67.45 72.57a1.57 1.57 0 0 0-.263.867v3.125h-3.124v-3.125c0-.307-.093-.61-.263-.867l-3.125-4.687c-.58-.87-2.02-.87-2.6 0L54.95 72.57a1.57 1.57 0 0 0-.263.867V93.75h-9.374V64.062c0-.864-.699-1.562-1.563-1.562H26.562c-.864 0-1.562.698-1.562 1.562V93.75H14.062v-6.402Zm46.874 6.402h-3.124V73.91l1.562-2.343 1.563 2.344V93.75Zm3.126-14.063h3.124v3.125h-3.124v-3.125Zm0 6.25h3.124v7.813h-3.124v-7.813Zm9.374 7.813h-3.124V73.91l1.562-2.343 1.563 2.344V93.75Zm3.126-14.063h3.124v3.125h-3.124v-3.125Zm0 6.25h3.124v7.813h-3.124v-7.813ZM42.187 93.75H28.126V65.625h14.063V93.75Zm40.626 0V73.91l1.562-2.343 1.563 2.344V93.75h-3.126Z" fill="#000"/><path d="M45.313 51.563h9.374a6.256 6.256 0 0 0 6.25-6.25v-9.376a6.256 6.256 0 0 0-6.25-6.25h-9.374a6.256 6.256 0 0 0-6.25 6.25v9.376a6.256 6.256 0 0 0 6.25 6.25Zm-3.126-6.25v-3.126h6.25v6.25h-3.124a3.128 3.128 0 0 1-3.126-3.124Zm12.5 3.124h-3.124v-6.25h6.25v3.126a3.128 3.128 0 0 1-3.126 3.124Zm3.126-12.5v3.126h-6.25v-6.25h3.124a3.128 3.128 0 0 1 3.126 3.124Zm-12.5-3.124h3.124v6.25h-6.25v-3.126a3.128 3.128 0 0 1 3.126-3.124ZM35.938 78.125h3.124v3.125h-3.124v-3.125Z" fill="#000"/></svg>
